**kern
*clefG2
*k[]
*M4/4
=1-
8b
16a
(4b
2cc)
16dd 16b
=2
4cc
16dd
4cc-
8cc-
16dd
4ee
=3
2ff
4gg
4aa
=4
1aa
=5
(16aa 16ff- 16dd
16bb
8ccc)
4ccc
2ccc
=6
2.ccc
4ddd
=7
16ddd
4ccc
4bb
8aa
4gg-
16gg-
=8
(1aa
=9
16r
16bb
2r
16r
16bb
4ccc
=10
1r
=11
*-